X: 1222
T: Karcığar Sazsemâîsi
C: Reşat Aysu
O: Turkey
F: http://compmusic.upf.edu/node/140
N: karcigar--sazsemaisi--aksaksemai----resat_aysu
N: makam= karcigar
N: form= sazsemaisi
N: usul= aksaksemai = 10/8
M: 10/8
L: 1/16
K: C _2/4B _3/4e ^3/4f 
Q: 1/4=120
%%MIDI tuningsystem comma53
d4 (3=edcc2 (3dcBB2 (3cBAA6  | dfeg fagg2_bag fed6  | 
w:  1. HANE  |   | 
d3/2e/fg abc'4_b3/2a/ gd'c'b agf2  | \
w:   | 
(3agfa4(3gfe g2f3/2e/ dfe3/2d/ ced2  | 
w:   | 
d3/2e/fg ac'_b3c'ag fed6  | d3/2e/fa gfe3de3/2d/ cBc6  | 
w:  TESLİM  |   | 
ag=f=e gff4f2 f_2/4e_3/4e4d2  | (3fga(3_bag (3feddc2BB/A/B/c/ BAAB/c/ d/e/f/g/a2  | 
w:   |   | 
d3/2e/fg ac'_b3c'ag fed6  | d3/2e/fa gfe3de3/2d/ cBc6  | 
w:  TESLİM  |   | 
ag=f=e gff4f2 f_2/4e_3/4e4d2  | (3fga(3_bag (3feddc2BB/A/B/c/ BAA6  | 
w:   |   | 
d4 (3edcde/f/ (3edccB BAAB/c/ d/e/f/g/a2  | 
w:  2. HANE  | 
a4 (3_bagab/c'/ (3bagfe edd6  | GABc defg/a/ (3fedde/f/ e/d/c/B/c4B2  | 
w:   |   | 
c4 (3BAB=ed dccB BAA6  | d3/2e/fg ac'_b3c'ag fed6  | 
w:   |  TESLİM  | 
d3/2e/fa gfe3de3/2d/ cBc6  | ag=f=e gff4f2 f_2/4e_3/4e4d2  | 
w:   |   | 
(3fga(3_bag (3feddc2BB/A/B/c/ BAAB/c/ d/e/f/g/a2  | 
w:   | 
d3/2e/fg ac'_b3c'ag fed6  | d3/2e/fa gfe3de3/2d/ cBc6  | 
w:  TESLİM  |   | 
ag=f=e gff4f2 f_2/4e_3/4e4d2  | (3fga(3_bag (3feddc2BB/A/B/c/ BAA6  | 
w:   |   | 
a2a2 a2af gedB cBAB/c/ d/e/f/g/a2  | \
w:  3. HANE  | 
_b2b2 b2b3/2a/ gd'c'b baa6  | 
w:   | 
defg abc'4_b3/2a/ gd'c'b agf2  | (3agfa4g/f/e/g/ f/e/d/f/e/d/c/d/ e/f/e/d/d6  | 
w:   |   | 
d3/2e/fg ac'_b3c'ag fed6  | d3/2e/fa gfe3de3/2d/ cBc6  | 
w:  TESLİM  |   | 
ag=f=e gff4f2 f_2/4e_3/4e4d2  | (3fga(3_bag (3feddc2BB/A/B/c/ BAAB/c/ d/e/f/g/a2  | 
w:   |   | 
d3/2e/fg ac'_b3c'ag fed6  | d3/2e/fa gfe3de3/2d/ cBc6  | 
w:  TESLİM  |   | 
ag=f=e gff4f2 f_2/4e_3/4e4d2  | (3fga(3_bag (3feddc2BB/A/B/c/ BAA6  | 
w:   |   | 
z12  | A4d4d4  | A4d4d4  | d2=f2=e2d2c2B2  | A12  | \
w:  |  4. HANE  |   |   |   | 
d4f4f4  | d4f4f4  | g2_b2a2g2f2e2  | 
w:   |   |   | 
d12  | a2g2f2c'2_b2a2  | _e'2c'2_b2a2c'2a2  | \
w:   |   |   | 
g2f2a2f2e2d2  | e2d2f2d2c2B2  | 
w:   |   | 
c2d2e2f2d2c2  | B2c2d2=e2c2B2  | c2d2c2B2B2A2  | A12  | \
w:   |   |   |   | 
a2f2d2f2a2f2  | 
w:  CANLI OLARAK  | 
_b2g2d2g2b2g2  | c'2a2f2a2c'2_e'2  | \
w:   |   | 
d'2c'2_b2a2g2f2  | a2f2d2f2a2c'2  | 
w:   |   | 
_b2a2g2f2e2d2  | e2f2g2a2f2e2  | d2e2f2g2a4  | \
w:   |   |   | 
a2f2d2f2a2f2  | 
w:  CANLI OLARAK  | 
_b2g2d2g2b2g2  | c'2a2f2a2c'2_e'2  | \
w:   |   | 
d'2c'2_b2a2g2f2  | a2f2d2f2a2c'2  | 
w:   |   | 
_b2a2g2f2e2d2  | e2f2g2a2f2e2  | d12  | \
w:   |   |   | 
d2c2B2c2d2=e2  | =f2g2=e2d2c2B2  | 
w:  Rell  |   | 
c2d2c2B2B2A2  | A12  | d2c2B2c2d2=e2  | \
w:   |   |   | 
=f2g2=e2d2c2B2  | c2d2c2B2B2A2  | 
w:   |   | 
A12  | a2f2d2f2a2f2  | _b2g2d2g2b2g2  | \
w:   |  a tempo  |   | 
c'2a2f2a2c'2a2  | _b2g2d2g2b2g2  | 
w:   |   | 
a2f2d2f2a2f2  | g2e2c2e2g2e2  | f2g2f2e2d2c2  | \
w:   |   |   | 
d2e2f2g2a4  | 
w:   | 
a2f2d2f2a2f2  | _b2g2d2g2b2g2  | c'2a2f2a2c'2a2  | \
w:  a tempo  |   |   | 
_b2g2d2g2b2g2  | 
w:   | 
a2f2d2f2a2f2  | g2e2c2e2g2e2  | f2g2f2e2d2c2  | d12  | a12  | \
w:   |   |   |   |   | 
d8B4  | 
w:   | 
c2d2c2B2B2A2  | A2Bcdefga4  | _b8a4  | g8d'4  | \
w:   |   |   |   | 
c'2d'2c'2_b2a2g2  | 
w:   | 
a12  | a2g2a2b2c'2d'2  | c'2_b2a2g2f2e2  | \
w:   |   |   | 
f2d2f2g2a2c'2  | _b2a2g2f2e2d2  | 
w:   |   | 
e2c2d2e2f2a2  | g2f2e2d2c2B2  | c2d2e2f2g2_b2  | \
w:   |   |   | 
a2g2f2g2a4  | 
w:   | 
a2g2a2b2c'2d'2  | c'2_b2a2g2f2e2  | f2d2f2g2a2c'2  | \
w:   |   |   | 
_b2a2g2f2e2d2  | 
w:   | 
e2c2d2e2f2a2  | g2f2e2d2c2B2  | c2d2c2B2B2A2  | A12  | z20  | \
w:   |   |   |   |  | 
d3/2e/fg ac'_b3c'ag fed6  | 
w:  TESLİM  | 
d3/2e/fa gfe3de3/2d/ cBc6  | ag=f=e gff4f2 f_2/4e_3/4e4d2  | 
w:   |   | 
(3fga(3_bag (3feddc2BB/A/B/c/ BAAB/c/ d/e/f/g/a2  | 
w:   | 
d3/2e/fg ac'_b3c'ag fed6  | d3/2e/fa gfe3de3/2d/ cBc6  | 
w:  TESLİM  |   | 
ag=f=e gff4f2 f_2/4e_3/4e4d2  | (3fga(3_bag (3feddc2BB/A/B/c/ BAA6  | 
w:   |   | 
|


